X: 40729
T: Toss The Feathers
R: reel
M: 4/4
K: Dmixolydian
|:D2ED ADED|ABcA GEGE|D2ED ADED|AddB cAGE|
(3DDD ED ADED|ABcA GEE2|cABG A2(3ABc|1 d2ed cAGE:|2 d2ed cAGB||
|:Add2 Add2|Adde dcde|eaag a3g|eaag aged|
efg/f/e afg/f/e|f2ed dcAB|cABG A2(3ABc|1 d2ed cAGB:|2 d2ed cAGE||

